assets/svg/icon_channel_admin.svg

<svg width="24" height="24" viewBox="0 0 24 24" fill="none" xmlns="http://www.w3.org/2000/svg">
<mask id="path-1-inside-1_30631_141668" fill="white">
<path fill-rule="evenodd" clip-rule="evenodd" d="M15.6031 9.92166C16.6592 10.4739 18.1348 10.2845 19.2795 10.1361C19.348 9.44713 19.9294 8.90909 20.6364 8.90909C21.3895 8.90909 22 9.51961 22 10.2727C22 10.9406 21.5198 11.4964 20.8859 11.6135L18.2067 18.5305C17.7999 19.5806 16.7896 20.2727 15.6635 20.2727H8.33646C7.21036 20.2727 6.20005 19.5806 5.79331 18.5305L3.11408 11.6135C2.48015 11.4964 2 10.9406 2 10.2727C2 9.51961 2.61052 8.90909 3.36364 8.90909C4.08446 8.90909 4.67466 9.46839 4.72395 10.1767C5.84202 10.3813 7.34866 10.6569 8.39695 10.1088C9.64119 9.45825 10.5138 7.63795 11.1062 6.40185C10.5543 6.08971 10.1818 5.49745 10.1818 4.81818C10.1818 3.81403 10.9958 3 12 3C13.0042 3 13.8182 3.81403 13.8182 4.81818C13.8182 5.49593 13.4474 6.08705 12.8975 6.39975L12.9038 6.41199C13.5178 7.62092 14.355 9.26912 15.6031 9.92166Z"/>
</mask>
<path d="M19.2795 10.1361L19.4338 11.3261C19.9873 11.2543 20.4183 10.8103 20.4736 10.2549L19.2795 10.1361ZM15.6031 9.92166L16.1592 8.85827L16.1591 8.85824L15.6031 9.92166ZM20.8859 11.6135L20.6678 10.4335C20.2583 10.5092 19.9173 10.7918 19.7669 11.1801L20.8859 11.6135ZM18.2067 18.5305L19.3257 18.964L19.3257 18.964L18.2067 18.5305ZM5.79331 18.5305L6.9123 18.0971L6.9123 18.0971L5.79331 18.5305ZM3.11408 11.6135L4.23307 11.1801C4.08266 10.7918 3.74169 10.5092 3.3322 10.4335L3.11408 11.6135ZM4.72395 10.1767L3.52684 10.26C3.56489 10.8069 3.96872 11.2584 4.50798 11.3571L4.72395 10.1767ZM8.39695 10.1088L8.95295 11.1722L8.95297 11.1722L8.39695 10.1088ZM11.1062 6.40185L12.1883 6.92046C12.4611 6.35127 12.2463 5.66806 11.6969 5.35734L11.1062 6.40185ZM12.8975 6.39975L12.3043 5.35665C11.7473 5.67344 11.5375 6.37195 11.8277 6.94324L12.8975 6.39975ZM12.9038 6.41199L13.9737 5.86855L13.9736 5.86851L12.9038 6.41199ZM19.1251 8.94606C18.5413 9.02177 17.9647 9.09433 17.4139 9.09165C16.8577 9.08895 16.4444 9.00745 16.1592 8.85827L15.047 10.9851C15.8178 11.3881 16.6705 11.4881 17.4022 11.4916C18.1394 11.4952 18.8729 11.3989 19.4338 11.3261L19.1251 8.94606ZM20.6364 7.70909C19.3065 7.70909 18.2143 8.72073 18.0853 10.0173L20.4736 10.2549C20.4817 10.1735 20.5522 10.1091 20.6364 10.1091V7.70909ZM23.2 10.2727C23.2 8.85685 22.0522 7.70909 20.6364 7.70909V10.1091C20.7267 10.1091 20.8 10.1824 20.8 10.2727H23.2ZM21.104 12.7936C22.2966 12.5731 23.2 11.5297 23.2 10.2727H20.8C20.8 10.3516 20.743 10.4196 20.6678 10.4335L21.104 12.7936ZM19.3257 18.964L22.0049 12.047L19.7669 11.1801L17.0877 18.0971L19.3257 18.964ZM15.6635 21.4727C17.2851 21.4727 18.7399 20.4761 19.3257 18.964L17.0878 18.097C16.8599 18.6852 16.2941 19.0727 15.6635 19.0727V21.4727ZM8.33646 21.4727H15.6635V19.0727H8.33646V21.4727ZM4.67432 18.964C5.26003 20.4761 6.7149 21.4727 8.33646 21.4727V19.0727C7.70583 19.0727 7.14006 18.6852 6.9123 18.0971L4.67432 18.964ZM1.99509 12.047L4.67432 18.964L6.9123 18.0971L4.23307 11.1801L1.99509 12.047ZM0.8 10.2727C0.8 11.5296 1.70332 12.5731 2.89596 12.7936L3.3322 10.4335C3.25698 10.4196 3.2 10.3516 3.2 10.2727H0.8ZM3.36364 7.70909C1.94778 7.70909 0.8 8.85687 0.8 10.2727H3.2C3.2 10.1824 3.27326 10.1091 3.36364 10.1091V7.70909ZM5.92105 10.0934C5.82832 8.76062 4.7193 7.70909 3.36364 7.70909V10.1091C3.44962 10.1091 3.52101 10.1762 3.52684 10.26L5.92105 10.0934ZM7.84094 9.04541C7.58676 9.17831 7.19336 9.24838 6.63472 9.22597C6.0855 9.20394 5.51167 9.1009 4.93991 8.99629L4.50798 11.3571C5.05429 11.4571 5.79282 11.5941 6.53852 11.624C7.27479 11.6536 8.15885 11.5874 8.95295 11.1722L7.84094 9.04541ZM10.024 5.88325C9.7232 6.51098 9.38828 7.20613 8.98897 7.82232C8.57692 8.45818 8.1859 8.86504 7.84092 9.04542L8.95297 11.1722C9.85223 10.702 10.5196 9.87346 11.003 9.1275C11.4992 8.36188 11.8968 7.52883 12.1883 6.92046L10.024 5.88325ZM8.98182 4.81818C8.98182 5.94728 9.60235 6.92996 10.5154 7.44637L11.6969 5.35734C11.5062 5.24946 11.3818 5.04761 11.3818 4.81818H8.98182ZM12 1.8C10.3331 1.8 8.98182 3.1513 8.98182 4.81818H11.3818C11.3818 4.47676 11.6586 4.2 12 4.2V1.8ZM15.0182 4.81818C15.0182 3.1513 13.6669 1.8 12 1.8V4.2C12.3414 4.2 12.6182 4.47676 12.6182 4.81818H15.0182ZM13.4908 7.44285C14.4004 6.92555 15.0182 5.94478 15.0182 4.81818H12.6182C12.6182 5.04708 12.4944 5.24856 12.3043 5.35665L13.4908 7.44285ZM13.9736 5.86851L13.9674 5.85627L11.8277 6.94324L11.8339 6.95548L13.9736 5.86851ZM16.1591 8.85824C15.7889 8.66467 15.4022 8.27564 15.0054 7.69688C14.615 7.12746 14.286 6.48337 13.9737 5.86855L11.8339 6.95544C12.1356 7.54955 12.5323 8.33402 13.026 9.05407C13.5133 9.76478 14.1693 10.5261 15.0471 10.9851L16.1591 8.85824Z" fill="#494949" mask="url(#path-1-inside-1_30631_141668)"/>
<circle cx="12" cy="5" r="1" fill="#494949"/>
<path d="M21 10.5C21 10.7761 20.7761 11 20.5 11C20.2239 11 20 10.7761 20 10.5C20 10.2239 20.2239 10 20.5 10C20.7761 10 21 10.2239 21 10.5Z" fill="#494949"/>
<path d="M4 10.5C4 10.7761 3.77614 11 3.5 11C3.22386 11 3 10.7761 3 10.5C3 10.2239 3.22386 10 3.5 10C3.77614 10 4 10.2239 4 10.5Z" fill="#494949"/>
</svg>

<svg xmlns="http://www.w3.org/2000/svg" width="24" height="24" fill="none"><mask id="a" fill="#fff"><path fill-rule="evenodd" d="M15.603 9.922c1.056.552 2.532.362 3.676.214a1.364 1.364 0 1 1 1.607 1.478l-2.68 6.916a2.73 2.73 0 0 1-2.542 1.743H8.336a2.73 2.73 0 0 1-2.543-1.742l-2.679-6.917a1.364 1.364 0 1 1 1.61-1.437c1.118.204 2.625.48 3.673-.068 1.244-.65 2.117-2.471 2.71-3.707a1.818 1.818 0 1 1 1.79-.002l.007.012c.614 1.209 1.451 2.857 2.7 3.51" clip-rule="evenodd"/></mask><path fill="#494949" d="m19.28 10.136.154 1.19a1.2 1.2 0 0 0 1.04-1.071zm-3.677-.214.556-1.064zm5.283 1.691-.218-1.18a1.2 1.2 0 0 0-.901.747zm-2.68 6.918 1.12.433zm-12.413 0 1.12-.434zm-2.679-6.917 1.12-.434a1.2 1.2 0 0 0-.902-.746zm1.61-1.437-1.197.083a1.2 1.2 0 0 0 .981 1.097zm3.673-.068.556 1.063zm2.71-3.707 1.081.518a1.2 1.2 0 0 0-.491-1.563zm1.79-.002-.593-1.043a1.2 1.2 0 0 0-.476 1.586zm.007.012 1.07-.543zm6.221 2.534c-.584.076-1.16.148-1.711.146-.556-.003-.97-.085-1.255-.234l-1.112 2.127c.77.403 1.624.503 2.355.507.737.003 1.47-.093 2.032-.166zm1.511-1.237a2.564 2.564 0 0 0-2.55 2.308l2.388.238a.164.164 0 0 1 .162-.146zm2.564 2.564a2.564 2.564 0 0 0-2.564-2.564v2.4c.09 0 .164.073.164.164zm-2.096 2.52a2.564 2.564 0 0 0 2.096-2.52h-2.4a.164.164 0 0 1-.132.16zm-1.778 6.171 2.679-6.917-2.238-.867-2.68 6.917zm-3.662 2.509a3.93 3.93 0 0 0 3.662-2.509l-2.238-.867a1.53 1.53 0 0 1-1.424.976zm-7.328 0h7.328v-2.4H8.336zm-3.662-2.509a3.93 3.93 0 0 0 3.662 2.509v-2.4c-.63 0-1.196-.388-1.424-.976zm-2.679-6.917 2.68 6.917 2.237-.867-2.679-6.917zM.8 10.273c0 1.257.903 2.3 2.096 2.52l.436-2.36a.164.164 0 0 1-.132-.16zm2.564-2.564A2.564 2.564 0 0 0 .8 10.273h2.4c0-.09.073-.164.164-.164zm2.557 2.384A2.564 2.564 0 0 0 3.364 7.71v2.4c.086 0 .157.067.163.151zm1.92-1.048c-.254.133-.648.203-1.206.181-.55-.022-1.123-.125-1.695-.23l-.432 2.361c.546.1 1.285.237 2.03.267.737.03 1.62-.037 2.415-.452zm2.183-3.162c-.3.628-.636 1.323-1.035 1.94-.412.635-.803 1.042-1.148 1.222l1.112 2.127c.9-.47 1.567-1.299 2.05-2.045.496-.765.894-1.598 1.185-2.207zM8.982 4.818c0 1.13.62 2.112 1.533 2.628l1.182-2.089a.62.62 0 0 1-.315-.539zM12 1.8a3.02 3.02 0 0 0-3.018 3.018h2.4c0-.341.277-.618.618-.618zm3.018 3.018A3.02 3.02 0 0 0 12 1.8v2.4c.341 0 .618.277.618.618zm-1.527 2.625a3.02 3.02 0 0 0 1.527-2.625h-2.4c0 .23-.124.43-.314.539zm.483-1.574-.007-.013-2.14 1.087.007.012zm2.185 2.99q-.557-.292-1.154-1.162c-.39-.57-.719-1.214-1.031-1.828l-2.14 1.086c.302.595.698 1.379 1.192 2.1.487.71 1.143 1.471 2.021 1.93z" mask="url(#a)"/><circle cx="12" cy="5" r="1" fill="#494949"/><path fill="#494949" d="M21 10.5a.5.5 0 1 1-1 0 .5.5 0 0 1 1 0M4 10.5a.5.5 0 1 1-1 0 .5.5 0 0 1 1 0"/></svg>
